X:0214
T:Maggy's Wame is fu I true.
M:C
L:1/8
Q:1/2=100
I: :: ::
Z:Jack Campin * www.campin.me.uk * 2009
K:D
B|ADFD ADFB|ADFA E/E/E GB|ADFD ABde|f>dg>e d/d/d d:|
A|defd geaf|gefd e/e/e eB|defd eBdA|BA dF  D/D/D D:|
<end>
<start>
